X:18951
T:Xiraldilla (CT 035)
R:Xiraldilla
C:Tradicional
S:Msica Tradicional Asturiana, (C) Tello & Tito. Asturies, 2001.
S:http://pagina.de/MusTradAst <telloytito@asturies.org>
N:Xiraldilla, dictada por Mara Fernndez Argelles, de 19 aos, de Cabaaquinta, ayuntamiento de Ayer.
O:Cabaaquinta (Ayer)
A:Asturies
Z:Cancioneru de Torner 035
M:3/8
L:1/8
Q:1/4=88
W:Vale ms una aldeana
W:vestidita de percal
W:que todas las seoritas
W:vestidas de tafetn.
W:
W:Las seoritas
W:polvos de arroz
W:Jess, que cara,
W:vlgame Dios!
K:C
 GG|:G2G|B2c|dd2-|
ddd|d2d|c2B|[1 c3-|cGG:|[2 c2B||
d2c|BBA|B2A|G2B|d2c|
BBA|B2A|G3-|G||
